src/topics/icons/aerospike.svg

<svg height="256" preserveAspectRatio="xMidYMid" viewBox="0 0 256 256" width="256" xmlns="http://www.w3.org/2000/svg"><path d="m0 0h256v256h-256z" fill="#b0252a"/><path d="m156.293175 95.6049968-73.168789 32.5940102 73.168789 32.810076zm-92.0324219 39.9788932-17.0486849-7.300731 17.0486849-7.880695 144.5271789-65.3767943v17.4034868l-37.931959 16.8235222v78.1178203l37.931959 16.998649v16.605182z" fill="#fff"/></svg>

<?xml version="1.0" encoding="UTF-8" standalone="no"?>
<svg width="256px" height="256px" viewBox="0 0 256 256" version="1.1" xmlns="http://www.w3.org/2000/svg" xmlns:xlink="http://www.w3.org/1999/xlink" preserveAspectRatio="xMidYMid">
	<g>
		<path d="M0,0 L256,0 L256,256 L0,256 L0,0 Z" fill="#B0252A"></path>
		<path d="M156.293175,95.6049968 L83.124386,128.199007 L156.293175,161.009083 L156.293175,95.6049968 L156.293175,95.6049968 Z M64.2607531,135.58389 L47.2120682,128.283159 L64.2607531,120.402464 L208.787932,55.0256697 L208.787932,72.4291565 L170.855973,89.2526787 L170.855973,167.370499 L208.787932,184.369148 L208.787932,200.97433 L64.2607531,135.58389 L64.2607531,135.58389 Z" fill="#FFFFFF"></path>
	</g>
</svg>
